public/avatar/shoe/164.svg

<svg xmlns:xlink="http://www.w3.org/1999/xlink" height="38.3" width="36.05" xmlns="http://www.w3.org/2000/svg"><use height="18.5" transform="translate(13.35 9.75)" width="19.55" xlink:href="#a"/><defs><g id="a" fill-rule="evenodd"><path d="M3.75-4.5q-2.5-.85-4.2-.5L-5.8-3.45q-.5.4-1.6 0-.55-.1-1.15.4-.7.55-.65 1.25l.95 3.3q.45 1.75.2 2Q-10.3 6-9.9 7.25q.15.45-.55 1.3 0 3.35.7 3.5Q-5.3 13.75.6 13.3q7.2-.4 7.65-2.1.6-2.45.25-2.75l-.55-.3q0-1.95-.6-2.65-1.4-1.8-.25-2.85.75-.85 1.5-2.7.9-2.15.15-2.55-1.8-1.15-2.9-.95l-2.1-.95" fill="#020000" transform="translate(10.45 5.1)"/><path d="M6.95 8.7Q-3.8 12.4-8.75 8q-.5-.5-1 .45-.2.35 0 1.55.2 1.25.6 1.5 2.7 1.5 8.65 1.15 7.45-.6 8-1.4 1.35-2.05.3-2.5l-.85-.05" fill="#e0d3d1" transform="translate(10.45 5.1)"/><path d="M.05 12.25q-5.75.15-9.35-2.1-.45-.25-.35-1.45l-.05 1.5q.2 1.25.7 1.5 2.3 1.5 8.55 1.1 7.4-.4 8.05-1.35 1.45-2.05.35-2.5-.2-.05.05.6.05.9-.9 1.4-2.3 1.25-7.05 1.3" fill="#aa9d9b" transform="translate(10.45 5.1)"/><path d="m4.1-3.85-1.25-.4-1.15-.2-2.5.15-2.35.45L-6.3-2.8l-.6.1-.4.15h.1l-.25.05.55.4.6.5q.9.55 3.1.8l5.95-.3Q4.1-1.45 5.2-2.2l.85-.65-1.95-1" fill="#698907" transform="translate(10.45 5.1)"/><path d="M3.3-3.8.85-4.05-.3-4l-1.35.15-2.3.6-2.55.9q-1.2.6-1.4.35l-.05.05 1.65 1.5Q-5.25.5-2.7 1l2.55.2L2.3.9Q4.2.4 5.1-.8q.4-.45.4-1.15l-.4-.8-.85-.6-.95-.45" fill="#5f7505" transform="translate(10.45 5.1)"/><path d="M-7.9-2.55q-1.5 1-.1 3.05 1.5 2.25.5 3.4-2.2 2.55-1.65 4.4.7 2.25 4.85 2.45l2.15.05 5.9-.3q3.1-.3 3.35-1.3.6-1.8-.5-3.8-1.1-2.15-.3-3.1Q8.6-1.2 8-2.05q-1.15-1.75-2.65-.8Q2.95-1.5-.4-1.5l-4.65-.45Q-6.9-3.2-7.9-2.55" fill="#698907" transform="translate(10.45 5.1)"/><path d="m3.5-3.8-1.2-.25-1.25-.05L2.2-4q.6.2.3.65-.15.25-.75.35l-1.5.15H-1.2l-1 .05-1.05.2-.75.1q-.4 0-.4-.3l.1-.2.1-.2-.35.1-1.6.55-.25.2q-.15.3.6.55.6.45 2.4.7l4.75-.2 3-.5.9-.5-.05-.5-.7-.55-1-.45" fill="#526002" transform="translate(10.45 5.1)"/><path d="m2.85-1.1 1.6-.6q.55-.15.75-.6.4-.75-.65-1.2l-1.6-.45.85.75.05.65-.65.35-2.2.6-2.5.4-.4.15.35.1.55.2h.35l.6.05 1-.05 1.9-.35" fill="#374402" transform="translate(10.45 5.1)"/><path d="M3.2-1.7.3-2.2q-2.95-.35-3.85.45-.4.3.05 1.9.55 1.8-.25 5.25-.3 1.5.25.85l6.5-.2-.25-1.25.45-6.5" fill="#374402" transform="translate(10.45 5.1)"/><path d="M3-1q-1.95-.7-6.15.05Q-4.7-.6-3.8.7l1.6-.2L2.3.3 4.1.25Q4.6-.55 3-1" fill="#98c6d8" transform="translate(10.45 5.1)"/><path d="M3.85 1.45Q.1.4-3.5 1.55q-1.65.6-.75 1l1.25.1 4.35-.15 2.5.4.25-.7q.1-.65-.25-.75m-.3 2.2q-5.45-.9-6.8-.1L-4.5 4.8q.3.5 2.55 0l4.45.35q1.05.6 1.45-.35.5-1.1-.4-1.15" fill="#98c6d8" transform="translate(10.45 5.1)"/><path d="m-3.95-.85-.1-.2-.2.05.05-.05-.6.2-.7.35-.25.5.3.55.5.45.75.15q.25-.1.05-.4l-.35-.5-.05-.45.6-.65M-4.7 1.4l-.7.05-.5.6v.65l.4.45.6.15.7-.15-.5-.35-.35-.55.35-.45.25-.15q.25 0 .15-.15h-.1l.1-.05-.4-.05m-.05 2.4L-6 4.05q-.5.25-.4.65l.5.85 1.2.25.45-.25-.55-.15q-.65-.35-.5-.7l.6-.55q.25-.25.05-.35h-.1M4.7-.6V0l-.5.5-.25.2-.25.05.05.2L4 1l.75-.05q.6-.15.8-.4l.3-.6-.05-.3-.25-.35-.7-.35H4.1l.6.45m.55 2.1-.65-.2h-.25q-.3 0-.05.15l.3.1.15.4v.45l-.25.35-.5.4.2.1q.5.15.9-.25l.45-.75-.05-.45-.25-.3m.3 2.7q-.2-.45-.8-.55l-.25.05h-.15l.4.3.2.55q.15.6-.7.7L4 5.3q-.4 0-.3.15l.15.2.7.1q.55.15.95-.35l.2-.5-.15-.7" fill="#020000" transform="translate(10.45 5.1)"/><path d="M7.3 6.8Q7 5.55-1 5.95q-7.95.3-8.15 1.5-.35 3.1 3.95 3.35 10.45.4 12.05-1.1.95-.95.45-2.9" fill="#e0d3d1" transform="translate(10.45 5.1)"/><path d="M5.6 10.2q1.35-.25 1.7-1.3l.05-.4q-.5 1.55-3.85 1.3-9.8.4-11.75-.85L-9.2 7.9q.05 1.55 1.5 2.15 1.65.9 6.75.75l6.55-.6" fill="#991b07" transform="translate(10.45 5.1)"/><path d="m3.3-.1-.05-.4L2-.8.75-.85Q.5-.8.8-.55l.7.2.8.35.7.2.3-.3M3.8 2l-.7-.35-1-.25-1.05-.15h-.6L.1 1.3q-.05.25.45.25l1.4.2 1.4.45.45-.15V2M.95 3.55l-1.1.15.2.2h.5l.75.1 1.15.4.3.15.45.15.6-.15h-.05L2.85 4 2 3.7.95 3.55m.4 7.45-1.1.15-1.05.05 1.8.25h.85l.25-.05 1.25-.15 1.85-.2 1.35-.35v-.05l.05.05q-.05-.15.2-.25L6 10.4l-2.5.35-2.15.25" fill="#fff" transform="translate(10.45 5.1)"/><path d="M-8-1.85q-.2.35-.05 1.15l.3.95Q-7.4.9-7 .8l1.05-.35-.1-.4.05-.4.25-.45.35-.3h-.05q-.6-.1-1.25-.7L-8-1.85M7.25-2.3l-.55-.3-.85.05L5.6-2l-.15.2-.25.2q-.4.1.25.3L6-1l.2.3.05.35q.05.15.55.35l.65-1.1.1-.7-.3-.5" fill="#abc609" transform="translate(10.45 5.1)"/><path d="M1.7 6.55q-.25-.15-1 .6-.15.15-.15.6l.45.5q.5.3 1.3.45h2.2q2.35-.4 2.05-1.25-.2-.5-.75-.7L4.05 6.4h-1.3l-.65.05-.4.1" fill="#efe2e1" transform="translate(10.45 5.1)"/><path d="M2.85 6.7h.2v.05l-.6.8q.5.65 2.15.5 1-.1 1.1-.6l-.45-.5-2.4-.25" fill="#fff" transform="translate(10.45 5.1)"/></g></defs></svg>

<?xml version="1.0" encoding="UTF-8" standalone="no"?>
<svg xmlns:xlink="http://www.w3.org/1999/xlink" height="38.3px" width="36.05px" xmlns="http://www.w3.org/2000/svg">
  <g transform="matrix(1.0, 0.0, 0.0, 1.0, 23.8, 14.85)">
    <use height="18.5" transform="matrix(1.0, 0.0, 0.0, 1.0, -10.45, -5.1)" width="19.55" xlink:href="#shape0"/>
  </g>
  <defs>
    <g id="shape0" transform="matrix(1.0, 0.0, 0.0, 1.0, 10.45, 5.1)">
      <path d="M3.75 -4.5 Q1.25 -5.35 -0.45 -5.0 L-5.8 -3.45 Q-6.3 -3.05 -7.4 -3.45 -7.95 -3.55 -8.55 -3.05 -9.25 -2.5 -9.2 -1.8 L-8.25 1.5 Q-7.8 3.25 -8.05 3.5 -10.3 6.0 -9.9 7.25 -9.75 7.7 -10.45 8.55 -10.45 11.9 -9.75 12.05 -5.3 13.75 0.6 13.3 7.8 12.9 8.25 11.2 8.85 8.75 8.5 8.45 L7.95 8.15 Q7.95 6.2 7.35 5.5 5.95 3.7 7.1 2.65 7.85 1.8 8.6 -0.05 9.5 -2.2 8.75 -2.6 6.95 -3.75 5.85 -3.55 L3.75 -4.5" fill="#020000" fill-rule="evenodd" stroke="none"/>
      <path d="M6.95 8.7 Q-3.8 12.4 -8.75 8.0 -9.25 7.5 -9.75 8.45 -9.95 8.8 -9.75 10.0 -9.55 11.25 -9.15 11.5 -6.45 13.0 -0.5 12.65 6.95 12.05 7.5 11.25 8.85 9.2 7.8 8.75 L6.95 8.7" fill="#e0d3d1" fill-rule="evenodd" stroke="none"/>
      <path d="M0.05 12.25 Q-5.7 12.4 -9.3 10.15 -9.75 9.9 -9.65 8.7 L-9.7 10.2 Q-9.5 11.45 -9.0 11.7 -6.7 13.2 -0.45 12.8 6.95 12.4 7.6 11.45 9.05 9.4 7.95 8.95 7.75 8.9 8.0 9.55 8.05 10.45 7.1 10.95 4.8 12.2 0.05 12.25" fill="#aa9d9b" fill-rule="evenodd" stroke="none"/>
      <path d="M4.1 -3.85 L2.85 -4.25 1.7 -4.45 -0.8 -4.3 -3.15 -3.85 -6.3 -2.8 -6.9 -2.7 -7.3 -2.55 -7.2 -2.55 -7.45 -2.5 -6.9 -2.1 -6.3 -1.6 Q-5.4 -1.05 -3.2 -0.8 L2.75 -1.1 Q4.1 -1.45 5.2 -2.2 L6.05 -2.85 4.1 -3.85" fill="#698907" fill-rule="evenodd" stroke="none"/>
      <path d="M3.3 -3.8 L0.85 -4.05 -0.3 -4.0 -1.65 -3.85 -3.95 -3.25 -6.5 -2.35 Q-7.7 -1.75 -7.9 -2.0 L-7.95 -1.95 -6.3 -0.45 Q-5.25 0.5 -2.7 1.0 L-0.15 1.2 2.3 0.9 Q4.2 0.4 5.1 -0.8 5.5 -1.25 5.5 -1.95 L5.1 -2.75 4.25 -3.35 3.3 -3.8" fill="#5f7505" fill-rule="evenodd" stroke="none"/>
      <path d="M-7.9 -2.55 Q-9.4 -1.55 -8.0 0.5 -6.5 2.75 -7.5 3.9 -9.7 6.45 -9.15 8.3 -8.45 10.55 -4.3 10.75 L-2.15 10.8 3.75 10.5 Q6.85 10.2 7.1 9.2 7.7 7.4 6.6 5.4 5.5 3.25 6.3 2.3 8.6 -1.2 8.0 -2.05 6.85 -3.8 5.35 -2.85 2.95 -1.5 -0.4 -1.5 L-5.05 -1.95 Q-6.9 -3.2 -7.9 -2.55" fill="#698907" fill-rule="evenodd" stroke="none"/>
      <path d="M3.5 -3.8 L2.3 -4.05 1.05 -4.1 2.2 -4.0 Q2.8 -3.8 2.5 -3.35 2.35 -3.1 1.75 -3.0 L0.25 -2.85 -1.2 -2.85 -2.2 -2.8 -3.25 -2.6 -4.0 -2.5 Q-4.4 -2.5 -4.4 -2.8 L-4.3 -3.0 -4.2 -3.2 -4.55 -3.1 -6.15 -2.55 -6.4 -2.35 Q-6.55 -2.05 -5.8 -1.8 -5.2 -1.35 -3.4 -1.1 L1.35 -1.3 4.35 -1.8 5.25 -2.3 5.2 -2.8 4.5 -3.35 3.5 -3.8" fill="#526002" fill-rule="evenodd" stroke="none"/>
      <path d="M2.85 -1.1 L4.45 -1.7 Q5.0 -1.85 5.2 -2.3 5.6 -3.05 4.55 -3.5 L2.95 -3.95 3.8 -3.2 3.85 -2.55 3.2 -2.2 1.0 -1.6 -1.5 -1.2 -1.9 -1.05 -1.55 -0.95 -1.0 -0.75 -0.65 -0.75 -0.05 -0.7 0.95 -0.75 2.85 -1.1" fill="#374402" fill-rule="evenodd" stroke="none"/>
      <path d="M3.2 -1.7 L0.3 -2.2 Q-2.65 -2.55 -3.55 -1.75 -3.95 -1.45 -3.5 0.15 -2.95 1.95 -3.75 5.4 -4.05 6.9 -3.5 6.25 L3.0 6.05 2.75 4.8 3.2 -1.7" fill="#374402" fill-rule="evenodd" stroke="none"/>
      <path d="M3.0 -1.0 Q1.05 -1.7 -3.15 -0.95 -4.7 -0.6 -3.8 0.7 L-2.2 0.5 2.3 0.3 4.1 0.25 Q4.6 -0.55 3.0 -1.0" fill="#98c6d8" fill-rule="evenodd" stroke="none"/>
      <path d="M3.85 1.45 Q0.1 0.4 -3.5 1.55 -5.15 2.15 -4.25 2.55 L-3.0 2.65 1.35 2.5 3.85 2.9 4.1 2.2 Q4.2 1.55 3.85 1.45" fill="#98c6d8" fill-rule="evenodd" stroke="none"/>
      <path d="M3.55 3.65 Q-1.9 2.75 -3.25 3.55 L-4.5 4.8 Q-4.2 5.3 -1.95 4.8 L2.5 5.15 Q3.55 5.75 3.95 4.8 4.45 3.7 3.55 3.65" fill="#98c6d8" fill-rule="evenodd" stroke="none"/>
      <path d="M-3.95 -0.85 L-4.05 -1.05 -4.25 -1.0 -4.2 -1.05 -4.8 -0.85 -5.5 -0.5 -5.75 0.0 -5.45 0.55 -4.95 1.0 -4.2 1.15 Q-3.95 1.05 -4.15 0.75 L-4.5 0.25 -4.55 -0.2 -3.95 -0.85" fill="#020000" fill-rule="evenodd" stroke="none"/>
      <path d="M-4.7 1.4 L-5.4 1.45 -5.9 2.05 -5.9 2.7 -5.5 3.15 -4.9 3.3 -4.2 3.15 -4.7 2.8 -5.05 2.25 -4.7 1.8 -4.45 1.65 Q-4.2 1.65 -4.3 1.5 L-4.4 1.5 -4.3 1.45 -4.7 1.4" fill="#020000" fill-rule="evenodd" stroke="none"/>
      <path d="M-4.75 3.8 L-6.0 4.05 Q-6.5 4.3 -6.4 4.7 L-5.9 5.55 -4.7 5.8 -4.25 5.55 -4.8 5.4 Q-5.45 5.05 -5.3 4.7 L-4.7 4.15 Q-4.45 3.9 -4.65 3.8 L-4.75 3.8" fill="#020000" fill-rule="evenodd" stroke="none"/>
      <path d="M4.7 -0.6 L4.7 0.0 4.2 0.5 3.95 0.7 3.7 0.75 3.75 0.95 4.0 1.0 4.75 0.95 Q5.35 0.8 5.55 0.55 L5.85 -0.05 5.8 -0.35 5.55 -0.7 4.85 -1.05 4.1 -1.05 4.7 -0.6" fill="#020000" fill-rule="evenodd" stroke="none"/>
      <path d="M5.25 1.5 L4.6 1.3 4.35 1.3 Q4.05 1.3 4.3 1.45 L4.6 1.55 4.75 1.95 4.75 2.4 4.5 2.75 4.0 3.15 4.2 3.25 Q4.7 3.4 5.1 3.0 L5.55 2.25 5.5 1.8 5.25 1.5" fill="#020000" fill-rule="evenodd" stroke="none"/>
      <path d="M5.55 4.2 Q5.35 3.75 4.75 3.65 L4.5 3.7 4.35 3.7 4.75 4.0 4.95 4.55 Q5.1 5.15 4.25 5.25 L4.0 5.3 Q3.6 5.3 3.7 5.45 L3.85 5.65 4.55 5.75 Q5.1 5.9 5.5 5.4 L5.7 4.9 5.55 4.2" fill="#020000" fill-rule="evenodd" stroke="none"/>
      <path d="M7.3 6.8 Q7.0 5.55 -1.0 5.95 -8.95 6.25 -9.15 7.45 -9.5 10.55 -5.2 10.8 5.25 11.2 6.85 9.7 7.8 8.75 7.3 6.8" fill="#e0d3d1" fill-rule="evenodd" stroke="none"/>
      <path d="M5.6 10.2 Q6.95 9.95 7.3 8.9 L7.35 8.5 Q6.85 10.05 3.5 9.8 -6.3 10.2 -8.25 8.95 L-9.2 7.9 Q-9.15 9.45 -7.7 10.05 -6.05 10.95 -0.95 10.8 L5.6 10.2" fill="#991b07" fill-rule="evenodd" stroke="none"/>
      <path d="M3.3 -0.1 L3.25 -0.5 2.0 -0.8 0.75 -0.85 Q0.5 -0.8 0.8 -0.55 L1.5 -0.35 2.3 0.0 3.0 0.2 3.3 -0.1" fill="#ffffff" fill-rule="evenodd" stroke="none"/>
      <path d="M3.8 2.0 L3.1 1.65 2.1 1.4 1.05 1.25 0.45 1.25 0.1 1.3 Q0.05 1.55 0.55 1.55 L1.95 1.75 3.35 2.2 3.8 2.05 3.8 2.0" fill="#ffffff" fill-rule="evenodd" stroke="none"/>
      <path d="M0.95 3.55 L-0.15 3.7 0.05 3.9 0.55 3.9 1.3 4.0 2.45 4.4 2.75 4.55 3.2 4.7 3.8 4.55 3.75 4.55 2.85 4.0 2.0 3.7 0.95 3.55" fill="#ffffff" fill-rule="evenodd" stroke="none"/>
      <path d="M1.35 11.0 L0.25 11.15 -0.8 11.2 1.0 11.45 1.85 11.45 2.1 11.4 3.35 11.25 5.2 11.05 6.55 10.7 6.55 10.65 6.6 10.7 Q6.55 10.55 6.8 10.45 L6.0 10.4 3.5 10.75 1.35 11.0" fill="#ffffff" fill-rule="evenodd" stroke="none"/>
      <path d="M-8.0 -1.85 Q-8.2 -1.5 -8.05 -0.7 L-7.75 0.25 Q-7.4 0.9 -7.0 0.8 L-5.95 0.45 -6.05 0.05 -6.0 -0.35 -5.75 -0.8 -5.4 -1.1 -5.45 -1.1 Q-6.05 -1.2 -6.7 -1.8 L-8.0 -1.85" fill="#abc609" fill-rule="evenodd" stroke="none"/>
      <path d="M7.25 -2.3 L6.7 -2.6 5.85 -2.55 5.6 -2.0 5.45 -1.8 5.2 -1.6 Q4.8 -1.5 5.45 -1.3 L6.0 -1.0 6.2 -0.7 6.25 -0.35 Q6.3 -0.2 6.8 0.0 L7.45 -1.1 7.55 -1.8 7.25 -2.3" fill="#abc609" fill-rule="evenodd" stroke="none"/>
      <path d="M1.7 6.55 Q1.45 6.4 0.7 7.15 0.55 7.3 0.55 7.75 L1.0 8.25 Q1.5 8.55 2.3 8.7 L4.5 8.7 Q6.85 8.3 6.55 7.45 6.35 6.95 5.8 6.75 L4.05 6.4 2.75 6.4 2.1 6.45 1.7 6.55" fill="#efe2e1" fill-rule="evenodd" stroke="none"/>
      <path d="M2.85 6.7 L3.05 6.7 3.05 6.75 2.45 7.55 Q2.95 8.2 4.6 8.05 5.6 7.95 5.7 7.45 L5.25 6.95 2.85 6.7" fill="#ffffff" fill-rule="evenodd" stroke="none"/>
    </g>
  </defs>
</svg>
